X:1
T:Golden Stud, The
R:reel
M:4/4
L:1/8
K:Em
ED|~E3G ~F3A|~G3B ABcA|BAGB AGFA|~G3E FED2|
~E3G ~F3A|~G3B ABcA|BAGB AGFA|GEFD E2:|
AB|c2AB cBA2|B2GA BAG2|A2FG AGFA|GEFD EFGB|
c2AB cBA2|B2GA BAG2|A2FG AGFA|GEFD E2:|
